X:1
T:In illo tempore
T:Melchior Franck (c1579-1639) Edited by  Johannes Wolf (1869-1947)
T:From "Newes Deutsches Musicalisches fröliches Convivium" Coburg 1621 
T:In illo tempore
T:Quodlibet
C:Melchior Franck (c1579-1639)
C:Edited by  Johannes Wolf (1869-1947)
Z:From "Newes Deutsches Musicalisches
Z:fröliches Convivium" Coburg 1621
Z:
%%score [ 1 2 3 4 ]
L:1/8
M:2/2
K:F
V:1 treble nm="P1" snm="S."
V:2 treble nm="P2" snm="A."
V:3 treble-8 transpose=-12 nm="P3" snm="T."
V:4 bass nm="P4" snm="B."
V:1
 z8 | z8 | z8 | z4 A4 | B4 G4 | F6 F2 | G4 A4 | F8 | F4 F4- | F2 F2 F2 F2 | B8 | A8 | z4 A4 | %13
w: |||In|il- lo|tem- po-|re se-|de-|bat Do-|* mi- nus Mar-|ti-|nus,|bo-|
 A4 A4- | A2 A2 =B4 | c8 | c4 G4- | G2 A2 B3 B | A8 | z8 | z2 F2 B4 | z2 F2 B2 d2 | c4 c2 c2 | %23
w: nus il-|* le Mar-|ti-|nus in-|* ter an- se-|res,||im stro,|im stro, im|stro und sie|
 B2 G2 A2 G2 | G4 z2 G2 | A2 c3 c B2 | A4 A2 c2 | dddd BBBB | cccc AAAA | B2 G2 A2 B2 | c4 A4 | %31
w: wa- ren al- le|fro ja|fro wa- ren sie|al- le und|schnat- ter- ten, und schnat- ter- ten, und|schnat- ter- ten, und schnat- ter- ten, und|schnat- ter- ten mit|schal- le.|
 z4 ^F4 | ^F2 F2 G2 F2 | G2 ^F2 G2 F2 | G8 | ^F4 z2 B2 | A3 B G2 G2 | ^F4 G2 G2 | G3 F E4 | D4 C4 | %40
w: O|lie- ber Pa- ter,|Vet- ter, Bru- der,|Mer-|ten, was|ha- stu vor ge-|fer- ten in|fra- mi- ne|nos- tro.|
 z2 G2 A3 A | A2 A2 B4 | A2 A2 B3 B | G2 c2 =B4 |[M:3/2] c8 c4 | B6 B2 A4 | G8 c4 | B8 A4 | G8 c4 | %49
w: Sie müs- sen|dein ent- gel-|ten, magst flu- chen|o- der schel-|ten. Drum|fan- gen wir|an wol|auff dem|Plan, drum|
 B8 A4 | G8 c4 | B8 B4 | A8 A4 | G8 G4 |[M:2/2] A8 | z8 | z8 | z8 | z8 | z8 | z2 dd d2 =B2 | z8 | %62
w: sind wir|da und|fan- gen|an wol|auff dem|Plan:||||||ju- bi- le- mus.||
 z8 | z2 d2 ^c2 d2 | z8 | z8 | z2 dd c2 B2 | z2 d2 d4 | c2 B3 B B2 | A4 A2 B2 | G2 G2 F2 F2 | %71
w: |can- te- mus.|||gau- de- a- mus.|Sind al-|les star- ke Pa-|tro- nen zur|fei- sten Mar- tins-|
 E4 z2 G2 | G2 G2 G2 A2 | B4 A2 A2 | A2 B2 G2 F2 | E4 F4 | z8 |[M:3/2] z4 z4 F4 | G8 A4 | B8 B4 | %80
w: gans; man|darff ih- rer nicht|scho- nen, sie|kön- nens wohl be-|loh- nen||so|fangt die|Gans, so|
 G8 F4 | F8 A4 | B8 c4 | d8 d4 | c8 c4 | B8 F4 | G8 A4 | B8 B4 | G8 F4 |[M:2/2] F4 B4 | A2 A2 G4 | %91
w: bringt die|Gans, so|würgt die|Gans, so|ropfft die|Gans, so|zopfft die|Gans, so|stopfft die|Gans, so|brat die Gans,|
 z4 z2 c2 | A2 A2 G4 | z4 z2 G2 | B2 B2 A4 | z4 z2 d2 | B2 B2 A4 | z4 z2 d2 | B2 B2 A2 B2 | %99
w: die|fei- ste Gans,|die|be- ste Gans,|die|fröm- mste Gans,|die|sehön- ste Gans, die|
 G2 c2 =B2 d2 | _e3 e d2 G2 | c2 A2 G2 c2 | A3 A G2 c2 | A3 A G2 c2 | A3 A G2 A2 | B3 B A2 c2 | %106
w: bun- te Gans, die|wei- ße Gans, die|grau- e Gans, ja|un- ser Gans, die|gu- te Gans, die|lie- be Gans, die|Schna- der Gans, die|
 d3 d c2 A2 | c4 A4 | G4 z2 G2 | A3 A c2 B2 | A2 G2 A4 | A4 z2 A2 | B4 G2 G2 | A4 z2 B2 | %114
w: bla- der Gans, die|Mar- tins|Gans, der|be- ste Vo- gel|in der Schüs-|sel. Weß|wirds a- ber|sein? Fritz|
 G2 F2 G2 A2 | B4 B2 c2 | c4 A4 | z2 A2 A2 B2 | c4 A2 c2 | d2 c2 c2 =B2 | c8 | G2 G2 G2 G2 | %122
w: frist das feist al-|lei- ne, al-|lei- ne.|In no- strum|ro- strum, ich|möcht er- stik- ket|sein,|Bru- der Ur- ban|
 G2 ^F2 G4 |[M:3/2] ^F8 A4 | B6 A2 G4 | ^F8 A4 | B6 B2 c4 |[M:2/2] d4 A4 | B2 B2 A2 G2 | %129
w: gebt uns vi-|num. So|flö- sen wirs|ein, so|trin- ken wir's|ein, die|Gans die wil be-|
 G2 ^F2 G4 | z2 A2 A2 A2 | A4 B2 A2 | A4 A2 d2 | c4 B2 F2 | G3 G G2 G2 | G4 G4 | z4 A4 | A6 A2 | %138
w: gos- sen sein;|sie will noch|schwim- men und|ba- den, ja|ba- den. So|wirds uns wol ge-|ra- ten:|haec|an- se-|
 B4 A4 | G6 G2 | A4 A4 | A6 B2 | G4 F4 | F4 E4 |[M:3/2] F8 A4 | F8 G4 | A8 A4 | F8 G4 | A8 A4 | %149
w: ris me-|mo- ri-|a, haec|an- se-|ris me-|mo- ri-|a, thut|drauf ein|trunck, ein|gu- ten|trunck, ein|
 F8 G4 | A8 c4 | d6 c2 B4 | A8 A4 | G8 A4 | B8 A4 | G8 G4 | G8 c4 | B6 A2 G4 | A8 =B4 | %159
w: Mer- tens|trunck, ein|pom- mer- schen|trunck, neun|Zug und|bey- de|Bak- ken|voll, in|u- ni- co|hy- po-|
[M:2/2] c4 F2 A2 | G4 A4 | z2 A2 A3 A | G2 F4 E2 | D2 D2 C3 C | D4 z2 F2 | F2 F2 F2 F2 | %166
w: cau- sto, ia|hau- stu.|So le- ben|wir da in|glim- per glo- ri-|a und|sin- gen un- sers|
 F2 F2 B2 B2 | A6 A2 |[M:3/2] G8 G4 | G6 G2 c4 | B6 B2 B4 | A8 A4 | G6 G2 G4 | F8 A4 | G6 G2 c4 | %175
w: Her- ren Mer- tens|gau- di-|a per|om- ni- a|tem- po- ra,|ey- a|we- ren wir-|da, per|om- ni- a|
 B6 B2 B4 | A8 A4 | G8 G4 | A2 x30 |] %179
w: tem- po- ra,|ey- a|wern wir-|da.|
V:2
 z8 | z8 | z8 | z4 F4 | F4 E4 | D6 F2 | E4 F4 | D8 | D4 D4- | D2 D2 D2 D2 | F8 | F8 | z4 F4 | %13
w: |||In|il- lo|tem- po-|re se-|de-|bat Do-|* mi- nus Mar-|ti-|nus,|bo-|
 F4 F4- | F2 F2 F4 | E8 | E4 E4 | E2 F4 E2 | F4 C4- | C2 D2 _E3 E | D4 z2 D2 | F4 z2 D2 | %22
w: nus il-|* le Mar-|ti-|nus in-|ter an- se-|res, in-|* ter an- se-|res im|stro, im|
 F4 F2 F2 | F2 G2 F2 D2 | E4 z2 E2 | F2 F3 F D2 | F4 F2 F2 | FFFF GGGG | EEEE FFFF | D2 G2 F2 F2 | %30
w: stro und sie|wa- ren al- le|fro ja|fro wa- ren sie|al- le und|schnat- ter- ten, und schnat- ter- ten, und|schnat- ter- ten, und schnat- ter- ten, und|schnat- ter- ten mit|
 E4 F4 | z4 D4 | D2 D2 D2 D2 | D2 D2 D2 D2 | D8 | D4 z2 F2 | F3 F _E2 E2 | D4 D2 _E2 | D3 D C4 | %39
w: schal- le.|O|lie- ber Pa- ter,|Vet- ter, Bru- der,|Mer-|ten, was|ha- stu vor ge-|fer- ten in|fra- mi- ne|
 =B,4 C4 | z2 E2 F3 F | F2 F2 F4 | F2 F2 G3 G | G2 G2 G4 |[M:3/2] E8 E4 | F4 F4 F4 | E8 E4 | %47
w: nos- tro.|Sie müs- sen|dein ent- gel-|ten, magst flu- chen|o- der schel-|ten. Drum|fan- gen wir|an wol|
 F8 F4 | E8 E4 | F8 F4 | E8 E4 | F8 G4 | C8 C4 | D8 C4 |[M:2/2] C8 | z8 | z8 | z8 | z8 | z8 | %60
w: auff dem|Plan, drum|sind wir|da und|fan- gen|an wol|auff dem|Plan:||||||
 z2 GG ^F2 G2 | z8 | z8 | z2 F2 E2 ^F2 | z8 | z8 | z2 FF F2 F2 | z2 F2 F4 | F2 F3 F E2 | F4 F2 F2 | %70
w: ju- bi- le- mus.|||can- te- mus.|||gau- de- a- mus.|Sind al-|les star- ke Pa-|tro- nen zur|
 D2 C2 C2 =B,2 | C4 z2 E2 | E2 E2 E2 F2 | F4 F2 F2 | F2 F2 C2 C2 | C4 C4 | z8 |[M:3/2] z4 z4 D4 | %78
w: fei- sten Mar- tins-|gans; man|darff ih- rer nicht|scho- nen, sie|kön- nens wohl be-|loh- nen||so|
 _E8 E4 | D8 D4 | C8 C4 | D8 C4 | G8 C4 | F8 F4 | _E8 C4 | D8 D4 | D8 F4 | F8 F4 | _E8 C4 | %89
w: fangt die|Gans, so|bringt die|Gans, so|würgt die|Gans, so|ropfft die|Gans, so|zopfft die|Gans, so|stopfft die|
[M:2/2] D4 D4 | F2 F2 E4 | z4 z2 C2 | F2 F2 E4 | z4 z2 E2 | G2 G2 ^F4 | z4 z2 D2 | G2 G2 ^F4 | %97
w: Gans, so|brat die Gans,|die|fei- ste Gans,|die|be- ste Gans,|die|fröm- mste Gans,|
 z4 z2 D2 | G2 G2 ^F2 G2 | G2 G2 G2 G2 | G3 G G2 E2 | E2 F2 E2 E2 | F3 F E2 E2 | F3 F E2 E2 | %104
w: die|sehön- ste Gans, die|bun- te Gans, die|wei- ße Gans, die|grau- e Gans, ja|un- ser Gans, die|gu- te Gans, die|
 F3 F E2 F2 | F3 F F2 F2 | F3 F F2 F2 | F4 F4 | E4 z2 E2 | F3 F A2 G2 | E2 D2 E4 | ^F4 z2 F2 | %112
w: lie- be Gans, die|Schna- der Gans, die|bla- der Gans, die|Mar- tins|Gans, der|be- ste Vo- gel|in der Schüs-|sel. Weß|
 G4 E2 E2 | F4 z2 F2 | _E2 B,2 E2 E2 | D4 D2 F2 | E4 F4 | z2 F2 F2 D2 | F4 F2 A2 | _B2 G2 A2 G2 | %120
w: wirds a- ber|sein? Fritz|frist das feist al-|lei- ne, al-|lei- ne.|In no- strum|ro- strum, ich|möcht er- stik- ket|
 G8 | _E2 E2 E2 E2 | _E2 D4 C2 |[M:3/2] D8 D4 | D4 B,4 C4 | D8 !courtesy!^F4 | G6 G2 G4 | %127
w: sein,|Bru- der Ur- ban|gebt uns vi-|num. So|flö- sen wirs|ein, so|trin- ken wir's|
[M:2/2] ^F4 F4 | G2 G2 D2 D2 | _E2 D2 D4 | z2 D2 D2 D2 | D4 D2 D2 | ^C4 D2 F2 | F4 F2 D2 | %134
w: ein, die|Gans die wil be-|gos- sen sein;|sie will noch|schwim- men und|ba- den, ja|ba- den. So|
 _E3 E D2 C2 | D4 E4 | z4 F4 | F6 F2 | G2 G2 F4- | F4 E4 | F4 F4 | F6 F2 | _E4 D4 | D4 C4 | %144
w: wirds uns wol ge-|ra- ten:|haec|an- se-|ris me- mo-|* ri-|a, haec|an- se-|ris me-|mo- ri-|
[M:3/2] C8 C4 | D8 E4 | F8 C4 | D8 E4 | F8 C4 | D8 E4 | F8 F4 | F4 D4 E4 | F8 F4 | E8 F4 | F8 F4 | %155
w: a, thut|drauf ein|trunck, ein|gu- ten|trunck, ein|Mer- tens|trunck, ein|pom- mer- schen|trunck, neun|Zug und|bey- de|
 E8 D4 | E8 E4 | F6 F2 G4 | C8 F4 |[M:2/2] E4 F2 F2 | E4 F4 | z2 F2 F3 F | E2 D4 C2 | %163
w: Bak- ken|voll, in|u- ni- co|hy- po-|cau- sto, ia|hau- stu.|So le- ben|wir da in|
 B,2 A,2 A,3 A, | A,4 z2 D2 | D2 D2 D2 D2 | D2 D2 D2 G2 | ^F6 F2 |[M:3/2] G8 D4 | E6 E2 F4 | %170
w: glim- per glo- ri-|a und|sin- gen un- sers|Her- ren Mer- tens|gau- di-|a per|om- ni- a|
 D6 D2 D4 | C8 C4 | D6 D2 C4 | C8 F4 | E6 E2 F4 | F6 F2 G4 | E8 F4 | F8 E4 | F2 x30 |] %179
w: tem- po- ra,|ey- a|we- ren wir-|da, per|om- ni- a|tem- po- ra,|ey- a|wern wir-|da.|
V:3
 F8 | B4 c4 | d6 d2 | c4 c4 | d4 c4 | A6 A2 | c4 c4 | B8 | B4 B4- | B2 B2 B2 B2 | d8 | c4 F4 | %12
w: In|il- lo|tem- po-|re, In|il- lo|tem- po-|re se-|de-|bat Do-|* mi- nus Mar-|ti-|nus, bo-|
 c4 c4 | c4 c4- | c2 c2 F4 | G8 | G4 c4- | c2 A2 G3 G | F4 A4 | A2 B4 A2 | B4 z2 B2 | d4 z2 B2 | %22
w: nus, bo-|nus il-|* le Mar-|ti-|nus in-|* ter an- se-|res, in-|ter an- se-|res im|stro im|
 A4 A2 A2 | d2 c2 c2 =B2 | c4 z2 c2 | c2 A3 A B2 | c4 c2 A2 | dddd dddd | cccc cccc | B2 c2 F2 F2 | %30
w: stro und sie|wa- ren al- le|fro ja|fro wa- ren sie|al- le und|schnat- ter- ten, und schnat- ter- ten, und|schnat- ter- ten, und schnat- ter- ten, und|schnat- ter- ten mit|
 G4 c4 | z4 A4 | A2 A2 B2 A2 | B2 A2 B2 A2 | B8 | A4 z2 d2 | c2 d2 B2 c2 | A4 G2 G2 | G2 G2 G4 | %39
w: schal- le.|O|lie- ber Pa- ter,|Vet- ter, Bru- der,|Mer-|ten, was|ha- * stu ge-|fer- ten in|fra- mi- ne|
 G4 E4 | z2 c2 c3 c | c2 c2 d4 | c2 c2 _e3 e | _e2 e2 d4 |[M:3/2] c8 G4 | d4 d4 c4 | c8 c4 | %47
w: nos- tro.|Sie müs- sen|dein ent- gel-|ten, magst flu- chen|o- der schel-|ten. Drum|fan- gen wir|an wol|
 F8 c4 | c8 c4 | F8 c4 | c8 c4 | d8 G4 | A8 F4 | F8 E4 |[M:2/2] F4 z2 F2 | A3 B c2 C2 | %56
w: auff dem|Plan, drum|sind wir|da und|fan- gen|an wol|auff dem|Plan: Her-|bey, her- bey, her-|
 E3 F G2 E2 | D2 D2 C4 | z2 G2 c3 c | B2 B2 A4 | G2 BB A2 G2 | z2 DD G3 G | F2 F2 E4 | %63
w: bey fer- tig zur|Mart- tins- gans.|Herr Burk- hart|mit den Bre-|tzeln: ju- bi- le- mus.|Bru- der Ur- ban|mit der Fla-|
 D2 A2 A2 A2 | z2 A2 d3 d | d2 d2 c4 | B2 BB A2 d2 | z2 B2 B4 | A2 d3 d B2 | c4 c2 d2 | %70
w: schen: can- te- mus.|Sanct Ban- tel|mit den Wür-|sten: gau- de- a- mus.|Sind al-|les star- ke Pa-|tro- nen zur|
 B2 G2 A2 F2 | G4 z2 c2 | c2 c2 c2 c2 | d4 c2 c2 | c2 F2 G2 A2 | G4 A4 | z2 F2 G2 A2 | %77
w: fei- sten Mar- tins-|gans; man|darff ih- rer nicht|scho- nen, sie|kön- nens wohl be-|loh- nen|So hebt nun|
[M:3/2] B8 B4 | B8 c4 | F8 F4 | G8 A4 | B8 c4 | _e8 e4 | d8 F4 | G8 A4 | B8 B4 | B8 c4 | d8 d4 | %88
w: an; so|fangt die|Gans, so|bringt die|Gans, so|würgt die|Gans, so|ropfft die|Gans, so|zopfft die|Gans, so|
 B8 A4 |[M:2/2] B8 | z4 z2 c2 | A2 A2 G4 | z4 z2 c2 | A2 A2 G4 | z4 z2 d2 | B2 B2 A4 | z4 z2 d2 | %97
w: stopfft die|Gans,|so|brat die Gans,|die|fei- ste Gans,|die|be- ste Gans,|die|
 B2 B2 A2 A2 | d2 d2 d2 d2 | c2 _e2 d2 =B2 | c3 c =B2 c2 | c2 c2 c2 G2 | c3 c c2 c2 | c3 c c2 c2 | %104
w: fröm- mste Gans, die|sehön- ste Gans, die|bun- te Gans, die|wei- ße Gans, die|grau- e Gans, ja|un- ser Gans, die|gu- te Gans, die|
 c3 c c2 c2 | d3 d c2 B2 | B3 B A2 c2 | A4 c4 | c4 z2 c2 | c3 c f2 d2 | ^c2 d2 c4 | d4 z2 d2 | %112
w: lie- be Gans, die|Schna- der Gans, die|bla- der Gans, die|Mar- tins|Gans, der|be- ste Vo- gel|in der Schüs-|sel. Weß|
 d4 c2 c2 | c4 z2 d2 | B2 F2 c2 c2 | F4 F2 A2 | G4 c4 | z2 c2 c2 B2 | A4 c2 f2 | d2 c2 d2 d2 | e8 | %121
w: wirds a- ber|sein? Fritz|frist das feist al-|lei- ne, al-|lei- ne.|In no- strum|ro- strum, ich|möcht er- stik- ket|sein,|
 c2 c2 c2 c2 | c2 A2 G4 |[M:3/2] A8 ^F4 | G4 G4 G4 | A8 d4 | d6 d2 G4 |[M:2/2] A4 d4 | %128
w: Bru- der Ur- ban|gebt uns vi-|num. So|flö- sen wirs|ein, so|trin- ken wir's|ein, die|
 d2 d2 d2 B2 | c2 A2 G4 | z2 !courtesy!^F2 F2 F2 | ^F4 G2 !courtesy!=F2 | E4 F2 B2 | A4 d2 B2 | %134
w: Gans die wil be-|gos- sen sein;|sie will noch|schwim- men und|ba- den, ja|ba- den. So|
 B3 c G2 c2 | =B4 c4 | z4 c4 | c6 c2 | _e4 c4 | c6 c2 | c4 c4 | c6 d2 | B4 A4 | G4 G4 | %144
w: wirds uns wol ge-|ra- ten:|haec|an- se-|ris me-|mo- ri-|a, haec|an- se-|ris me-|mo- ri-|
[M:3/2] A8 A4 | A8 B4 | c8 A4 | A8 B4 | c8 A4 | A8 B4 | c8 A4 | _B4 B4 B4 | c8 c4 | c8 c4 | d8 c4 | %155
w: a, thut|drauf ein|trunck, ein|gu- ten|trunck, ein|Mer- tens|trunck, ein|pom- mer- schen|trunck, neun|Zug und|bey- de|
 c8 =B4 | c8 G4 | F6 F2 c4 | c8 F4 |[M:2/2] G4 d2 c2 | c4 c4 | z2 c2 c3 c | c2 A4 z2 | F2 F2 E3 E | %164
w: Bak- ken|voll, in|u- ni- co|hy- po-|cau- sto, ia|hau- stu.|So le- ben|wir da|glim- per glo- ri-|
 ^F4 z2 B2 | B2 B2 B2 B2 | B2 B2 B2 d2 | d6 d2 |[M:3/2] =B8 B4 | c6 c2 c4 | F6 F2 G4 | E8 F4 | %172
w: a und|sin- gen un- sers|Her- ren Mer- tens|gau- di-|a per|om- ni- a|tem- po- ra,|ey- a|
 F6 F2 E4 | F8 c4 | c6 c2 c4 | d6 d2 d4 | c8 c4 | d8 c4 | c2 x30 |] %179
w: we- ren wir-|da, per|om- ni- a|tem- po- ra,|ey- a|wern wir-|da.|
V:4
 z8 | z8 | z8 | z4 F,,4 | B,,4 C,4 | D,6 D,2 | C,4 F,4 | B,,8 | B,,4 B,,4- | B,,2 B,,2 B,,2 B,,2 | %10
w: |||In|il- lo|tem- po-|re se-|de-|bat Do-|* mi- nus Mar-|
 B,,8 | F,,8 | z4 F,4 | F,4 F,4- | F,2 F,2 D,4 | C,8 | C,8 | z8 | z4 F,4- | F,2 D,2 C,3 C, | %20
w: ti-|nus,|bo-|nus il-|* le Mar-|ti-|nus||in-|* ter an- se-|
 B,,4 z2 B,,2 | B,4 z2 B,,2 | F,4 F,2 F,2 | D,2 E,2 F,2 G,2 | C,4 z2 C,2 | F,2 F,3 F, G,2 | %26
w: res im|stro im|stro und sie|wa- ren al- le|fro ja|fro wa- ren sie|
 F,4 F,2 F,2 | B,B,B,B, G,G,G,G, | A,A,A,A, F,F,F,F, | G,2 E,2 F,2 D,2 | C,4 F,,4 | z4 D,4 | %32
w: al- le und|schnat- ter- ten, und schnat- ter- ten, und|schnat- ter- ten, und schnat- ter- ten, und|schnat- ter- ten mit|schal- le.|O|
 D,2 D,2 G,,2 D,2 | G,,2 D,2 G,,2 D,2 | G,,8 | D,4 z2 B,,2 | F,2 D,2 _E,2 C,2 | D,4 G,,2 C,2 | %38
w: lie- ber Pa- ter,|Vet- ter, Bru- der,|Mer-|ten, was|ha- * stu ge-|fer- ten in|
 =B,,3 B,, C,4 | G,,4 C,4 | z2 C,2 F,3 F, | F,2 F,2 B,,4 | F,2 F,2 _E,3 E, | _E,2 C,2 G,4 | %44
w: fra- mi- ne|nos- tro.|Sie müs- sen|dein ent- gel-|ten, magst flu- chen|o- der schel-|
[M:3/2] C,8 C,4 | D,6 E,2 F,4 | C,8 C,4 | D,8 F,4 | C,8 C,4 | D,8 F,4 | C,8 A,,4 | D,8 E,4 | %52
w: ten. Drum|fan- gen wir|an wol|auff dem|Plan, drum|sind wir|da und|fan- gen|
 F,8 A,,4 | B,,8 C,4 |[M:2/2] F,,8 | z8 | z8 | z8 | z8 | z8 | z2 G,G, D,2 G,,2 | z8 | z8 | %63
w: an wol|auff dem|Plan:||||||ju- bi- le- mus.|||
 z2 D,2 A,2 D,2 | z8 | z8 | z2 B,B, F,2 B,,2 | z2 B,,2 B,,4 | F,2 B,3 B, G,2 | F,4 F,2 D,2 | %70
w: can- te- mus.|||gau- de- a- mus.|Sind al-|les star- ke Pa-|tro- nen zur|
 G,2 E,2 F,2 D,2 | C,4 z2 C,2 | C,2 C,2 C,2 F,2 | B,,4 F,2 F,2 | F,2 D,2 E,2 F,2 | C,4 F,,4 | z8 | %77
w: fei- sten Mar- tins-|gans; man|darff ih- rer nicht|scho- nen, sie|kön- nens wohl be-|loh- nen||
[M:3/2] z4 z4 B,,4 | _E,8 C,4 | B,,8 B,,4 | _E,8 F,4 | B,,8 F,4 | G,8 A,4 | B,8 B,,4 | _E,8 F,4 | %85
w: so|fangt die|Gans, so|bringt die|Gans, so|würgt die|Gans, so|ropfft die|
 B,,8 B,,4 | G,,8 F,,4 | B,,8 D,4 | (_E,4 C,4) F,4 |[M:2/2] B,,8 | z4 z2 C,2 | F,2 F,2 E,4 | %92
w: Gans, so|zopfft die|Gans, so|stopfft * die|Gans,|so|brat die Gans,|
 z4 z2 C,2 | F,2 F,2 E,4 | z4 z2 D,2 | G,2 G,2 ^F,4 | z4 z2 D,2 | G,2 G,2 ^F,2 F,2 | %98
w: die|fei- ste Gans,|die|be- ste Gans,|die|fröm- mste Gans, die|
 G,2 G,,2 D,2 G,2 | _E,2 C,2 G,2 G,,2 | C,3 C, G,,2 C,2 | A,,2 F,,2 C,2 C,2 | F,,3 F,, C,2 C,2 | %103
w: sehön- ste Gans, die|bun- te Gans, die|wei- ße Gans, die|grau- e Gans, ja|un- ser Gans, die|
 F,,3 F,, C,2 C,2 | F,3 F, C,2 F,2 | _B,3 B, F,2 F,2 | B,,3 B,, F,,2 F,,2 | F,4 F,4 | C,4 z2 C,2 | %109
w: gu- te Gans, die|lie- be Gans, die|Schna- der Gans, die|bla- der Gans, die|Mar- tins|Gans, der|
 F,3 F, F,2 G,2 | A,2 _B,2 A,4 | D,4 z2 D,2 | G,4 C,2 C,2 | F,4 z2 B,,2 | _E,2 D,2 C,2 C,2 | %115
w: be- ste Vo- gel|in der Schüs-|sel. Weß|wirds a- ber|sein? Fritz|frist das feist al-|
 B,,4 B,,2 F,,2 | C,4 F,,4 | z2 F,2 F,2 G,2 | A,4 F,2 F,2 | B,2 C2 F,2 G,2 | C,8 | %121
w: lei- ne, al-|lei- ne.|In no- strum|ro- strum, ich|möcht er- stik- ket|sein,|
 C,2 C,2 C,2 C,2 | C,2 D,2 _E,4 |[M:3/2] D,8 D,4 | G,6 F,2 _E,4 | D,8 D,4 | G,6 F,2 _E,4 | %127
w: Bru- der Ur- ban|gebt uns vi-|num. So|flö- sen wirs|ein, so|trin- ken wir's|
[M:2/2] D,4 D,4 | G,2 G,2 ^F,2 G,2 | C,2 D,2 G,,4 | z2 D,2 D,2 D,2 | D,4 G,,2 D,2 | A,,4 D,2 B,,2 | %133
w: ein, die|Gans die wil be-|gos- sen sein;|sie will noch|schwim- men und|ba- den, ja|
 F,4 B,,2 B,,2 | _E,3 C, =B,,2 C,2 | G,,4 C,4 | z4 F,4 | F,6 F,2 | _E,4 F,4 | C,6 C,2 | F,,4 F,4 | %141
w: ba- den. So|wirds uns wol ge-|ra- ten:|haec|an- se-|ris me-|mo- ri-|a, haec|
 F,6 D,2 | _E,4 F,4 | B,,4 C,4 |[M:3/2] F,,8 F,4 | D,8 G,4 | F,8 F,4 | D,8 G,4 | F,8 F,4 | %149
w: an- se-|ris me-|mo- ri-|a, thut|drauf ein|trunck, ein|gu- ten|trunck, ein|
 D,8 G,4 | F,8 F,4 | _B,6 A,2 G,4 | F,8 F,4 | C,8 F,4 | B,8 F,4 | G,8 G,,4 | C,8 C,4 | %157
w: Mer- tens|trunck, ein|pom- mer- schen|trunck, neun|Zug und|bey- de|Bak- ken|voll, in|
 D,6 D,2 E,4 | F,8 D,4 |[M:2/2] C,4 B,,2 F,,2 | C,4 F,,4 | z2 F,2 F,3 F, | C,2 D,4 A,,2 | %163
w: u- ni- co|hy- po-|cau- sto, ia|hau- stu.|So le- ben|wir da in|
 B,,2 D,2 A,,3 A,, | D,4 z2 B,,2 | B,,2 B,,2 B,,2 B,,2 | B,,2 B,,2 B,,2 G,,2 | D,6 D,2 | %168
w: glim- per glo- ri-|a und|sin- gen un- sers|Her- ren Mer- tens|gau- di-|
[M:3/2] G,,8 G,,4 | C,6 C,2 A,,4 | B,,6 B,,2 G,,4 | A,,8 F,,4 | B,,6 B,,2 C,4 | F,,8 F,,4 | %174
w: a per|om- ni- a|tem- po- ra,|ey- a|we- ren wir-|da, per|
 C,6 C,2 A,,4 | B,,6 B,,2 G,,4 | A,,8 F,,4 | B,,8 C,4 | F,,2 x30 |] %179
w: om- ni- a|tem- po- ra,|ey- a|wern wir-|da.|

